assets/images/simple-illustrations/simple-illustration__alert.svg

<svg xmlns="http://www.w3.org/2000/svg" width="48" height="48" fill="none" viewBox="0 0 48 48"><path fill="#400000" d="M16.0671 34.248C16.1083 34.248 16.1495 34.248 16.1907 34.248H31.0873C31.6041 34.248 32.0542 34.29 32.4442 34.3642C34.9866 34.8512 35.0564 36.7382 35.0564 37.6317V42.1926H12.2217V37.6317C12.2217 36.7963 12.2851 35.0931 14.3711 34.4771C14.8307 34.3416 15.3887 34.2577 16.0671 34.2513V34.248Z"/><path fill="#BF3013" d="M14.4027 34.4417C14.3076 34.1482 16.3301 17.2753 16.3301 17.2753C16.3301 17.2753 16.9768 13.3175 23.6278 13.1594C30.2757 13.3207 30.9256 17.2753 30.9256 17.2753C30.9256 17.2753 32.8213 33.087 32.8562 34.3643C32.4567 34.2901 31.9971 34.2482 31.4708 34.2482H31.2743C31.1665 32.4225 29.6955 18.6203 29.6955 18.6203C29.6955 18.6203 29.1629 14.9754 23.7103 14.827C18.2544 14.9754 17.725 18.6203 17.725 18.6203C17.725 18.6203 16.2509 32.4258 16.1463 34.2514C15.4552 34.2611 14.8845 34.3418 14.4153 34.4772L14.4058 34.445L14.4027 34.4417Z"/><path fill="#F25730" d="M31.2713 34.2449H16.2733C16.2289 34.2449 16.1877 34.2449 16.1465 34.2449C16.2511 32.4193 17.7252 18.6138 17.7252 18.6138C17.7252 18.6138 18.2546 14.9689 23.7105 14.8206C29.1632 14.9689 29.6958 18.6138 29.6958 18.6138C29.6958 18.6138 31.1699 32.416 31.2745 34.2417L31.2713 34.2449Z"/><path stroke="#002140" stroke-linecap="round" stroke-linejoin="round" d="M24.6298 42.1895H35.0596V37.6285C35.0596 36.735 34.9898 34.8481 32.4981 34.361C32.1145 34.2868 31.6739 34.2449 31.1666 34.2449H23.8848"/><path stroke="#002140" stroke-linecap="round" stroke-linejoin="round" d="M24.6614 42.1894H12.2217V37.6284C12.2217 36.793 12.2851 35.0899 14.4154 34.4738C14.8846 34.3384 15.4552 34.2545 16.1463 34.248C16.1876 34.248 16.2288 34.248 16.2731 34.248H23.8879"/><path stroke="#002140" stroke-linecap="round" stroke-linejoin="round" d="M14.4027 34.4416C14.3076 34.148 16.3301 17.2751 16.3301 17.2751C16.3301 17.2751 16.9768 13.3173 23.6278 13.1592C23.7642 13.1592 23.9036 13.156 24.0463 13.156"/><path stroke="#002140" stroke-linecap="round" stroke-linejoin="round" d="M32.8538 34.4416C32.8538 34.4416 32.857 34.4061 32.8538 34.361C32.8221 33.0836 30.9232 17.2719 30.9232 17.2719C30.9232 17.2719 30.2733 13.3141 23.6255 13.1561C23.4892 13.1561 23.3497 13.1528 23.207 13.1528"/><path fill="#FFFAF0" d="M22.5024 27.6711L18.4509 30.2226L20.67 26.1035L16.5234 24.8262L20.8634 23.6489L18.2607 19.5298L22.5024 21.7845L23.6595 17.5654L24.8166 21.7845L28.7698 19.5298L26.5507 23.5521L30.6972 24.7294L26.5507 25.8068L28.9632 30.0258L24.7183 27.5744L23.6595 32.087L22.5024 27.6711Z"/><path stroke="#BF3013" stroke-linecap="round" stroke-linejoin="round" d="M33.4941 16.6848H38.9912"/><path stroke="#BF3013" stroke-linecap="round" stroke-linejoin="round" d="M8.67773 17.0752H14.1748"/><path stroke="#BF3013" stroke-linecap="round" stroke-linejoin="round" d="M23.9961 11.2401V5.64697"/><path stroke="#BF3013" stroke-linecap="round" stroke-linejoin="round" d="M30.3457 12.8723L34.2323 8.91772"/><path stroke="#BF3013" stroke-linecap="round" stroke-linejoin="round" d="M17.0692 13.2658L13.1826 9.31128"/></svg>

<svg xmlns="http://www.w3.org/2000/svg" width="48" height="48" fill="none" viewBox="0 0 48 48"><path fill="#400000" d="M16.067 34.248h15.02c.517 0 .967.042 1.357.116 2.543.487 2.612 2.374 2.612 3.268v4.56H12.222v-4.56c0-.836.063-2.539 2.15-3.155.459-.135 1.017-.22 1.695-.226z"/><path fill="#bf3013" d="M14.403 34.442c-.095-.294 1.927-17.167 1.927-17.167s.647-3.957 7.298-4.116c6.648.162 7.298 4.116 7.298 4.116s1.895 15.812 1.93 17.09a7.5 7.5 0 0 0-1.385-.117h-.197c-.108-1.825-1.579-15.628-1.579-15.628s-.532-3.645-5.985-3.793c-5.456.148-5.985 3.793-5.985 3.793s-1.474 13.806-1.579 15.631c-.69.01-1.262.09-1.73.226l-.01-.032z"/><path fill="#f25730" d="M31.271 34.245H16.146c.105-1.826 1.58-15.631 1.58-15.631s.529-3.645 5.985-3.793c5.452.148 5.985 3.793 5.985 3.793s1.474 13.802 1.578 15.628z"/><path stroke="#002140" stroke-linecap="round" stroke-linejoin="round" d="M24.63 42.19h10.43v-4.561c0-.894-.07-2.78-2.562-3.268a7 7 0 0 0-1.331-.116h-7.282"/><path stroke="#002140" stroke-linecap="round" stroke-linejoin="round" d="M24.661 42.19h-12.44v-4.562c0-.835.064-2.538 2.194-3.154.47-.136 1.04-.22 1.731-.226h7.742m-9.485.194c-.095-.294 1.927-17.167 1.927-17.167s.647-3.958 7.298-4.116l.418-.003"/><path stroke="#002140" stroke-linecap="round" stroke-linejoin="round" d="M32.854 34.442s.003-.036 0-.081c-.032-1.277-1.93-17.09-1.93-17.09s-.65-3.957-7.299-4.115l-.418-.003"/><path fill="#fffaf0" d="m22.502 27.671-4.051 2.552 2.219-4.12-4.147-1.277 4.34-1.177-2.602-4.12 4.241 2.256 1.158-4.22 1.157 4.22 3.953-2.255-2.22 4.022 4.147 1.177-4.146 1.078 2.412 4.219-4.245-2.452-1.058 4.513z"/><path stroke="#bf3013" stroke-linecap="round" stroke-linejoin="round" d="M33.494 16.685h5.497m-30.313.39h5.497m9.821-5.835V5.647m6.35 7.225 3.886-3.954M17.07 13.266 13.182 9.31"/></svg>
